X:153
T:Countess of Sutherland’s Reel. RH.153
R:Reel
S:Rev.R.Harrison’s MS,c1815,Cumbria
O:England
A:Temple Sowerby,Cumbria
Z:vmp.Simon Wilson. Review PJH, 2008.
M:C
L:1/8
Q:1/2=90
K:D
f|d2Ad BdAd|GdFd Eeef|d2Ad Bbag|faeg fdd:|
a/b/4c’/4|d’afa gbeg|fada eAA a/b/4c’/4|\
d’afa gbeg|faeg fdd a/b/4c’/4|!
d’afa gbeg|fadf eAAa|b>abc’ d’c’ag|faeg fdd|]

